X:1
T:Title
%%score { 1 | ( 2 3 ) }
L:1/8
M:4/4
K:G
V:1 treble nm="Grand Piano"
V:2 treble 
V:3 treble 
V:1
 z4 z2[Q:1/4=100] D2 | G3 B [FA]2 [EG]A | B d3- d2 e2 | d3 B B2 [GA]G |[M:3/4] [FA]6 |[M:1/4] D2 | %6
[M:4/4] G3 B [FA]2 [EG]A | B d3- d2 [Ge]2 | [Gd]3 [GB] [FA]2 GA | [B,DG]6 z2 | %10
 [CFA]3 [CFA] [CA]G[DGB]A | G B3- B2 e2 | d3 c B2 AG |[M:3/4] [FA]6 |[M:1/4] D2 | %15
[M:4/4] G3 B [FA]2 [EG]A | B d3- d2 [Ge]2 | [Gd]3 [GB] [FA]2 GA |[M:8/4] [B,DG]8 z8 |] %19
V:2
 z4 z2 [G,B,]2 | [G,B,D]3 [G,DG][K:bass] [D,D]2 z[K:treble] F | [G,DG] [G,B,G]3- [G,B,G]2 [G,CG]2 | %3
 [G,B,G]3 [G,DG] [G,DG]2[K:bass] [E,^C]2 |[M:3/4] [D,D]6 |[M:1/4] [F,C]2 | %6
[M:4/4][K:treble] [G,B,D]3 [G,DG][K:bass] [D,D]2 z[K:treble] F | %7
 [G,DG] [G,B,G]3- [G,B,G]2[K:bass] [C,C]2 | [D,B,]3 [D,D] [D,C]2 B,C | G,,6 z2 | %10
 D,3 D, z B, z[K:treble] [CF] | [G,B,] [G,DG]3- [G,DG]2 [CG]2 | %12
 [B,DG]3 [A,DF] [G,DG]2[K:bass] [F,D][E,^CE] |[M:3/4] [D,D]6 |[M:1/4] [F,C]2 | %15
[M:4/4] [G,B,D]3 [G,DG] [D,D]2 z[K:treble] F | [G,DG] [G,B,G]3- [G,B,G]2[K:bass] [C,C]2 | %17
 [D,B,]3 [D,D] [D,C]2 B,C |[M:8/4] G,,8 z8 |] %19
V:3
 x8 | z4[K:bass] z2 [D,D]2[K:treble] | x8 | x6[K:bass] x2 |[M:3/4] x6 |[M:1/4] x2 | %6
[M:4/4][K:treble] z4[K:bass] z2 [D,D]2[K:treble] | x6[K:bass] x2 | z4 z2 [D,D]2 | x8 | %10
 z4 D,2 D,2[K:treble] | x8 | x6[K:bass] x2 |[M:3/4] x6 |[M:1/4] x2 | %15
[M:4/4] z4 z2 [D,D]2[K:treble] | x6[K:bass] x2 | z4 z2 [D,D]2 |[M:8/4] x16 |] %19

